X: 25866
T: Mathematician's
R: hornpipe
M: 4/4
K: Dmajor
G|F>G ^G>A f>d A>F|G>A _B>=B g>e B>d|c>b a>g f>e d>c|(3dfe (3dcB (3ABA (3GFE|
F>G ^G>A (3fed (3cBA|G>A _B>=B (3gfe (3dcB|(3cba (3gfe (3dcB (3ABc|(3dAf (3dAF D3 a|
d'>a f>d A>F D>=c|B>^D E>G B>e g>b|e'>b g>e B>G E>D|c>E A>c e>a c'>e'|
f'>d' a>f d>A F>D|G>B d>g b>d' d'>b|(3ad'c' (3bag (3fgf (3gfe|(3dfa (3d'af d4|

